X: 37516
T: Slip Reel, The
R: three-two
M: 3/2
K: Cmajor
CA,|:G,A,CD EGAc GE~E2|G,A,CD EGAc G2 AB|
cAGE GEDC DA~A2|1 G,A,CD EGDE C2CA,:|2 G,A,CD EGDE C2EF||
|:G2 cG Acde ag~g2|eg~g2 agec d2 eg|
a2 c'a gd~d2 ec~c2|1 eged cdAG c2EF:|2 eged cdAG c2CA,||

